!!!!SEGMENT: pl-sa--82-a-ii-22--006_anonim--missa-ex-f-agnus-dei.krn
!!!cenid: 17xx:1536
!!!COM: Anonim
!!!COM-rismID: pe30004985
!!!CDT:
!!!CNT:
!!!OPR: Missa ex F
!!!OTL: Agnus Dei
!!!OMV: 006
!!!PDT:
!!!AGN: Sacred; Mass
!!!SMS-siglum: PL-SA
!!!SMS-shelfmark: 82/A II 22
!!!SMS-shelfwork: 001-006 M
!!!SMS-variant:
!!!SMS-altvar:
!!!NIFC-rismSourceID: 1001035461
!!!NIFC-rismChildID: 1001035461
!!!NIFC-islandoraID:
!!!URL-pdf-islandora:
!!!URL-scan: https://bc.bdsandomierz.pl/dlibra/publication/1360/edition/1328/content @EN{Scan in the Sandomierz Diocese Digital Library} @PL{Skany w portalu Cyfrowa Biblioteka Diecezjalna w Sandomierzu}
!!!ONB-nifc: UWAGA: części Mszy: 1. Kyrie, 2. Gloria, 3. Patrem, 4. Sanctus, 5. Benedictus, 6. Agnus Dei
!!!AIN: 1 organ 2 soprn 2 violn
!!!key: d
**kern	**kern	**kern	**dynam	**kern	**text	**kern	**text
*part5	*part4	*part3	*part3	*part2	*part2	*part1	*part1
*staff5	*staff4	*staff3	*	*staff2	*staff2	*staff1	*staff1
*I"Baſso.	*I"Violino 2do	*I"Violino Primo	*	*I"Canto Secundo .	*	*I"Canto=	*
*I'b	*I'vl II	*I'vl I	*	*I'S II	*	*I'S I	*
*ICklav	*ICstr	*ICstr	*	*ICvox	*	*ICvox	*
*Iorgan	*Ivioln	*Ivioln	*	*Isoprn	*	*Isoprn	*
*clefF4	*clefG2	*clefG2	*	*clefC1	*	*clefC1	*
*k[b-]	*k[b-]	*k[b-]	*	*k[b-]	*	*k[b-]	*
*d:	*d:	*d:	*	*d:	*	*d:	*
*M2/4	*M2/4	*M2/4	*	*M2/4	*	*M2/4	*
=1	=1	=1	=1	=1	=1	=1	=1
!LO:TX:b:i:t=Agnus	!LO:TX:a:B:t=Adagio	!LO:TX:a:B:t=adagio	!	!	!	!	!
!LO:TX:a:B:t=Adagio	!LO:TX:b:i:t=Agnus=	!LO:TX:b:i:t=Agnus=	!	!LO:TX:a:B:t=Adagio	!	!LO:TX:a:B:t=ada	!
8D\L	8d/L	8a\L	.	2r	.	8r	.
8E\	8f/	8dd\	.	.	.	8dd\	A-
8F\	8f/	8dd\	.	.	.	8dd\	.
8D\J	8f/J	8dd\J	.	.	.	8dd\	-gnus
=2	=2	=2	=2	=2	=2	=2	=2
8r	8f/L	8dd\L	.	2r	.	8dd\L	De-
8AA/L	8e/J	8cc#X\J	.	.	.	8cc#X\J	.
8C#X/	4e/	4cc#\	.	.	.	4cc#\	-j
8AA/J	.	.	.	.	.	.	.
=3	=3	=3	=3	=3	=3	=3	=3
*^	*	*	*	*	*	*	*
8AA/L	8ryy	4cc#X\	4ee\	.	2r	.	4ee\	De-
!	!LO:N:vis=4	!	!	!	!	!	!	!
8BBn/	8BBn\	.	.	.	.	.	.	.
!LO:TX:t=P:♯after:problem	!	!	!	!	!	!	!	!
8C#X/	8ryy	8cc#\L	8ee\L	.	.	.	8ee\	-j
8AA/J	8ryy	8ee\J	8gg\J	.	.	.	8gg\	qui
*v	*v	*	*	*	*	*	*	*
=4	=4	=4	=4	=4	=4	=4	=4
8D/L	8dd\L	8ff\L	.	2r	.	8ff\L	tol-
8AA/	8cc#X\J	8ee\J	.	.	.	8ee\J	.
8FF/	4cc#\	4ee\	.	.	.	4ee\	-lis
8DD/J	.	.	.	.	.	.	.
=5	=5	=5	=5	=5	=5	=5	=5
*tremolo	*	*	*	*	*	*	*
*2\right	*	*	*	*	*	*	*
8F\L	8ccn\L	8aa\L	.	2r	.	8aa\	pec-
8F\	8a\	8ff\	.	.	.	8ff\	.
8F\	8a\	8cc\	.	.	.	8cc\	-ca-
8F\J	8f\J	8a\J	.	.	.	8a\	-ta
=6	=6	=6	=6	=6	=6	=6	=6
8r	16a/LL	16cc\LL	.	2r	.	16cc\LL	mun-
.	16g/J	16b-\J	.	.	.	16b-\JJ	.
8C/L	8g/J	8b-\J	.	.	.	8b-\	-di
8E/	8r	8r	.	.	.	4r	.
8G/J	8b-\	8gg\	.	.	.	.	.
!	!	!	!	!	!	!LO:LB:g=original	!
=7	=7	=7	=7	=7	=7	=7	=7
8E\L	8b-/L	8gg\L	.	2r	.	8gg\	pec-
8E\	8g/	8ee\	.	.	.	8ee\	-ca-
8E\	8e/	8b-\	.	.	.	8b-\	.
8E\J	8g/J	8g\J	.	.	.	8g\	-ta
=8	=8	=8	=8	=8	=8	=8	=8
8r	16g/LL	16b-\LL	.	4r	.	16b-\LL	mun-
.	16f/J	16a\J	.	.	.	16a\JJ	.
*Xtremolo	*	*	*	*	*	*	*
8F\L	8f/J	8a\J	.	.	.	8a\	-di
!LO:SIC:v:s=8A	!	!	!	!	!	!	!
8B-\	8r	8r	.	8r	.	8r	.
8F\J	16a/LL	16cc\LL	.	16a\	mi-	16cc\	mi-
.	16a/JJ	16cc\JJ	.	16a\	-se-	16cc\	-se-
=9	=9	=9	=9	=9	=9	=9	=9
8r	16a/LL	16cc\LL	.	16a\LL	-re-	16cc\LL	-re-
.	16g/J	16b-\J	.	16g\JJ	.	16b-\J	.
8C/L	8g/J	8b-\J	.	8g\	-re	8b-\J	-re
!	!	!LO:LB:g=original	!	!	!	!	!
8C/	8r	8r	.	8r	.	8r	.
8C/J	16g/LL	16b-\LL	.	16g\	mi-	16b-\	mi-
.	16g/JJ	16b-\JJ	.	16g\	-se-	16b-\	-se-
!	!LO:LB:g=original	!	!	!	!	!	!
=10	=10	=10	=10	=10	=10	=10	=10
8r	16g/LL	16b-/LL	.	16g/LL	-re-	16b-\LL	-re-
.	16f/J	16a/J	.	16f/JJ	.	16a\JJ	.
8F\L	8f/J	8a/J	.	8f/	-re	8a\	-re
8F\	8r	8r	.	8r	.	8r	.
8F\J	16a/LL	16cc\LL	.	16a\	mi-	16cc\	mi-
.	16a/JJ	16cc\JJ	.	16a\	-se-	16cc\	-se-
!LO:LB:g=original	!	!	!	!	!	!	!
=11	=11	=11	=11	=11	=11	=11	=11
!	!	!	!	!	!	!	!
8F\L	8a/L	8cc\L	.	8a\	-re-	8cc\	-re-
8AA/	16b-/L	16dd\L	.	16b-\LL	-re	16dd\LL	-re
.	16g'/JJ	16b-\JJ	.	16g\JJ	.	16b-\JJ	.
8BB-/	8f'/L	8a/L	.	8f/L	no-	8a\L	no-
8C/J	8e'/J	8g/J	.	8e/J	.	8g\J	.
!	!	!	!	!	!	!LO:LB:g=original	!
=12	=12	=12	=12	=12	=12	=12	=12
*tremolo	*	*	*	*	*	*	*
8F\L	8f/L	8f/L	.	8f/	-bis	8f/	-bis
8F\	8a/J	8cc/J	.	8r	.	8r	.
8F\	8a/L	8cc\L	.	4r	.	4r	.
8F\J	16b-/L	16dd\L	.	.	.	.	.
.	16a/JJ	16cc\JJ	.	.	.	.	.
!	!	!	!	!LO:LB:g=original	!	!	!
=13	=13	=13	=13	=13	=13	=13	=13
!	!	!	!	!LO:TX:a:t=19.	!	!LO:TX:a:t=6.	!
8E\L	8g/L	8b-\L	.	2r	.	2r	.
8E\	8g/J	8b-\J	.	.	.	.	.
8E\	8g/L	8b-\L	.	.	.	.	.
8E\J	16a/L	16cc\L	.	.	.	.	.
.	16g/JJ	16b-\JJ	.	.	.	.	.
*Xtremolo	*	*	*	*	*	*	*
=14	=14	=14	=14	=14	=14	=14	=14
4F\	8f/L	8a/	.	2r	.	2r	.
.	16r	16r	.	.	.	.	.
.	16f/Jk	16g/	.	.	.	.	.
8r	16f/LL	16a/LL	.	.	.	.	.
.	16e/	16g/	.	.	.	.	.
8F\	16f/	16a/	.	.	.	.	.
.	16g/JJ	16b-/JJ	.	.	.	.	.
=15	=15	=15	=15	=15	=15	=15	=15
8C/L	8a/L	8cc\L	.	2r	.	2r	.
8D/	8f/	8a\	.	.	.	.	.
8E/	8g/	8b-\	.	.	.	.	.
8C/J	8e/J	8g\J	.	.	.	.	.
=16	=16	=16	=16	=16	=16	=16	=16
4F\	8f/L	8a/	.	2r	.	2r	.
.	16r	16r	.	.	.	.	.
.	16e/Jk	16g/	.	.	.	.	.
8r	16f/LL	16a/LL	.	.	.	.	.
.	16e/	16g/	.	.	.	.	.
8F\	16f/	16a/	.	.	.	.	.
.	16g/JJ	16b-/JJ	.	.	.	.	.
!	!	!LO:LB:g=original	!	!	!	!	!
=17	=17	=17	=17	=17	=17	=17	=17
8C/L	8a/L	8cc\L	.	2r	.	2r	.
8D/	8f/	8a\	.	.	.	.	.
8E/	8g/	8b-\	.	.	.	.	.
8C/J	8e/J	8g\J	.	.	.	.	.
=18	=18	=18	=18	=18	=18	=18	=18
!LO:TX:t=P:problem=mixed beam	!	!	!	!	!	!	!
8F\L	8f/L	8cc\L	.	2r	.	2r	.
8C\	8a/	8ff\	.	.	.	.	.
8FF/J	8a/J	8ff\J	.	.	.	.	.
8r	8r	8r	.	.	.	.	.
!	!LO:LB:g=original	!	!	!	!	!	!
=19	=19	=19	=19	=19	=19	=19	=19
4F\	8A/L	4cc\	p	2r	.	4cc\	A-
.	8c/	.	.	.	.	.	.
4r	8A/	16cc\LL	.	.	.	16cc\LL	.
.	.	16a\	.	.	.	16b-\JJ	.
.	8c/J	16g\	.	.	.	16a\LL	-gnus
.	.	16f\JJ	.	.	.	16g\JJ	.
=20	=20	=20	=20	=20	=20	=20	=20
4r	8G/L	8e/L	.	2r	.	8e/	De-
.	8A/J	8f/J	.	.	.	8f/	-j
16F\LL	4r	4r	.	.	.	4r	.
16G\	.	.	.	.	.	.	.
16A\	.	.	.	.	.	.	.
16F\JJ	.	.	.	.	.	.	.
=21	=21	=21	=21	=21	=21	=21	=21
4B-\	8B-/L	4dd\	.	2r	.	4dd\	De-
.	8d/	.	.	.	.	.	.
4r	8B-/	16dd\LL	.	.	.	16dd\LL	-j
.	.	16b-\	.	.	.	16b-\JJ	.
.	8d/J	16a\	.	.	.	16a\LL	qui-
.	.	16g\JJ	.	.	.	16g\JJ	.
!LO:LB:g=original	!	!	!	!	!	!	!
=22	=22	=22	=22	=22	=22	=22	=22
4r	8A/L	8f#X/L	.	2r	.	8f#X/L	-tol-
.	8B-/J	8g/J	.	.	.	8g/J	-lis
16G\LL	4r	4r	.	.	.	4r	.
16A\	.	.	.	.	.	.	.
16B-\	.	.	.	.	.	.	.
16G\JJ	.	.	.	.	.	.	.
=23	=23	=23	=23	=23	=23	=23	=23
8.C/L	4g/	4ee\	.	2r	.	4ee\	pec-
16D/Jk	.	.	.	.	.	.	.
8E\L	8g/L	8ee\L	.	.	.	8ee\	-ca-
8C\J	8g/J	8ee\J	.	.	.	8ee\	-ta
=24	=24	=24	=24	=24	=24	=24	=24
*tremolo	*	*	*	*	*	*	*
8F\L	8a/L	16ff\LL	.	2r	.	16ff\LL	mun-
.	.	16cc\J	.	.	.	16cc\JJ	.
8F\	8a/J	8cc\J	.	.	.	8cc\	-di
8F\	8r	8r	.	.	.	4r	.
8F\J	8a/	8cc\	.	.	.	.	.
*Xtremolo	*	*	*	*	*	*	*
=25	=25	=25	=25	=25	=25	=25	=25
16c\LL	16a/LL	16cc\LL	.	2r	.	16cc\LL	Mi-
16d\	16b-/	16dd\	.	.	.	16dd\	.
16e-X\	16cc/	16ee-X\	.	.	.	16ee-X\	.
16d\JJ	16b-/JJ	16dd\JJ	.	.	.	16dd\JJ	.
!	!	!	!	!	!	!LO:LB:g=original	!
16c\LL	16a/LL	16cc\LL	.	.	.	16cc\LL	-se-
16B-\	16g/	16b-\	.	.	.	16b-\JJ	.
16A\	16f/	16a\	.	.	.	16a\LL	-re-
16G\JJ	16e/JJ	16g\JJ	.	.	.	16g\JJ	-re
!	!	!LO:LB:g=original	!	!	!	!	!
=26	=26	=26	=26	=26	=26	=26	=26
!	!	!LO:TX:t=P:problem= brak caudy dla 8f#	!	!	!	!	!
8F#X\L	8f#X/L	8f#X/L	.	2r	.	8f#X/	no-
8D\	8d/	8d/	.	.	.	8d/	-bis
8F#\	8f#X/	8f#/	.	.	.	4r	.
8A\J	8a/J	8a/J	.	.	.	.	.
=27	=27	=27	=27	=27	=27	=27	=27
16B-\LL	16g/LL	16b-\LL	.	2r	.	16b-\LL	Mi-
16c\	16a/	16cc\	.	.	.	16cc\	.
16d\	16b-/	16dd\	.	.	.	16dd\	.
16c\JJ	16a/JJ	16cc\JJ	.	.	.	16cc\JJ	.
16B-\LL	16g/LL	16b-/LL	.	.	.	16b-\LL	-se-
16A\	16f/	16a/	.	.	.	16a\	.
16G\	16e/	16g/	.	.	.	16g\	-re-
16F\JJ	16d/JJ	16fn/JJ	.	.	.	16fn\JJ	-re
=28	=28	=28	=28	=28	=28	=28	=28
8E\L	8e/L	8e/L	.	2r	.	8e/	no-
8C\	8c/	8c/	.	.	.	8c/	-bis
8E\	8e/	8e/	.	.	.	4r	.
8G\J	8g/J	8g/J	.	.	.	.	.
!	!LO:LB:g=original	!	!	!	!	!	!
=29	=29	=29	=29	=29	=29	=29	=29
!	!	!	!	!	!	!LO:TX:a:t=3.	!
8r	16c/LL	16e/LL	.	2r	.	2r	.
.	16d/JJ	16f/JJ	.	.	.	.	.
8C/L	4e/	4g/	.	.	.	.	.
8C/	.	.	.	.	.	.	.
8C/J	8e/	8g/	.	.	.	.	.
=30	=30	=30	=30	=30	=30	=30	=30
8r	16e/LL	16g/LL	.	2r	.	2r	.
.	16f/JJ	16a/JJ	.	.	.	.	.
8C/L	4g/	4b-/	.	.	.	.	.
8C/	.	.	.	.	.	.	.
8C/J	8f/	8a/	.	.	.	.	.
!LO:LB:g=original	!	!	!	!	!	!	!
=31	=31	=31	=31	=31	=31	=31	=31
8C\L	8f/L	8a/L	.	2r	.	2r	.
8c\J	8e/J	8g/J	.	.	.	.	.
16c\LL	4r	4r	.	.	.	.	.
16B-\	.	.	.	.	.	.	.
16A\	.	.	.	.	.	.	.
16G\JJ	.	.	.	.	.	.	.
=32	=32	=32	=32	=32	=32	=32	=32
4F\	4a/	4ff\	.	4a\	A-	4ff\	A-
4r	16a/LL	16ff\LL	.	16a\LL	.	16ff\LL	.
.	16g/	16ee\	.	16g\JJ	.	16ee\JJ	.
.	16a/	16ff\	.	16a\LL	-gnus	16ff\LL	-gnus
.	16b-/JJ	16gg\JJ	.	16b-\JJ	.	16gg\JJ	.
=33	=33	=33	=33	=33	=33	=33	=33
8r	8a/L	16ff\LL	.	8a\L	De-	16ff\LL	De-
.	.	16cc\JJ	.	.	.	16cc\JJ	.
8F\L	8a/J	8cc\	.	8a\J	-j	8cc\	-j
8F\	4r	4r	.	4r	.	4r	.
8F\J	.	.	.	.	.	.	.
!	!	!LO:LB:g=original	!	!	!	!	!
=34	=34	=34	=34	=34	=34	=34	=34
4B-\	4b-\	4dd\	.	4b-\	De-	4dd\	De-
4r	16b-\LL	16dd\LL	.	16b-\LL	-j	16dd\LL	-j
.	16cc\	16ee\	.	16cc\JJ	.	16ee\JJ	.
.	16dd\	16ff\	.	16dd\LL	qui	16ff\LL	qui
.	16b-\JJ	16dd\JJ	.	16b-\JJ	.	16dd\JJ	.
!	!	!	!	!	!	!LO:LB:g=original	!
=35	=35	=35	=35	=35	=35	=35	=35
8r	8b-\L	8dd\L	.	8b-\	tol-	8dd\	tol-
8F\L	8a\J	8cc\J	.	8a\	-lis	8cc\	-lis
8A\	8r	8r	.	4r	.	4r	.
8F\J	8a/	8cc\	.	.	.	.	.
=36	=36	=36	=36	=36	=36	=36	=36
8r	8.g/L	8.b-/L	.	8.g/	pec-	8.b-\L	pec-
8E\L	.	.	.	.	.	.	.
.	16f/Jk	16a/Jk	.	16f/	.	16a\Jk	.
8E\	8e/L	8g/L	.	8e/	-ca-	8g\	-ca-
8E\J	16b-/L	16dd/L	.	16b-\LL	-ta	16dd\LL	-ta
.	16a/JJ	16cc/JJ	.	16a\JJ	.	16cc\JJ	.
!	!	!	!	!LO:LB:g=original	!	!	!
=37	=37	=37	=37	=37	=37	=37	=37
8r	8.a/L	8.cc\L	.	8.a\	pec-	8.cc\	pec-
8F\L	.	.	.	.	.	.	.
.	16g/Jk	16b-\Jk	.	16g\	.	16b-\	.
8F\	8f/L	8a\L	.	8f/	-ca-	8a\	-ca-
8F\J	8a/J	16ff\L	.	8a\	-ta	16ff\LL	-ta
.	.	16cc\JJ	.	.	.	16cc\JJ	.
=38	=38	=38	=38	=38	=38	=38	=38
4B-\	8b-\L	8dd\L	.	8b-\	pec-	8dd\	pec-
.	16dd\L	16bb-\L	.	16dd\	-ca-	16bb-\	-ca-
.	16b-\JJ	16gg\JJ	.	16b-\	-ta	16gg\	-ta
!LO:TX:t=P:problem=mixed beam	!	!	!	!	!	!	!
8c\L	8a/L	8ff\L	.	8a\	mun-	8ff\L	Mun-
8C/J	8g/J	8ee\J	.	8g\	.	8ee\J	.
!	!LO:LB:g=original	!	!	!	!	!	!
=39	=39	=39	=39	=39	=39	=39	=39
8F\L	8a/L	8ff\L	.	4a\	-di	4ff\	-di
8F\J	8a/J	8ff\J	.	.	.	.	.
4r	8a/L	8ff\L	.	8a\	mi-	8ff\L	Mi-
.	16g/L	16ee\L	.	16g\	-se-	16ee\L	-se-
.	16a/JJ	16ff\JJ	.	16a\	.	16ff\JJ	.
=40	=40	=40	=40	=40	=40	=40	=40
16r	8b-/L	16gg\LL	.	16b-\LL	-re-	16gg\LL	-re-
16C`\LL	.	16ee\J	.	16g\JJ	.	16ee\JJ	.
16E`\	8g/	8cc\J	.	8e/	-re	8cc\	-re
16G`\JJ	.	.	.	.	.	.	.
16c\LL	8g/	8cc\L	.	8e/	mi-	8cc\	Mi-
16G\	.	.	.	.	.	.	.
16E\	8g/J	8cc\J	.	8e/	-se-	8cc\	-se-
16C\JJ	.	.	.	.	.	.	.
!LO:LB:g=original	!	!	!	!LO:LB:g=original	!	!LO:LB:g=original	!
=41	=41	=41	=41	=41	=41	=41	=41
8C/L	8ee\L	8gg\L	.	8ee\	-re-	8gg\	-re-
8C/	8ee\J	8gg\J	.	8ee\	-re	8gg\	-re
8E/	8ee\L	8gg\L	.	8ee\	no-	8gg\	no-
8C/J	16dd\L	16ff\L	.	16dd\LL	.	16ff\LL	.
.	16ee\JJ	16gg\JJ	.	16ee\JJ	.	16gg\JJ	.
=42	=42	=42	=42	=42	=42	=42	=42
8F\L	8ff\L	8aa\L	.	8ff\	.	8aa\L	.
8FF/J	8ff\J	8aa\J	.	8ff\	-bis	8aa\J	-bis
!LO:TX:b:i:t=Dona Nobis ut Kyrie allo	!	!	!	!	!	!	!
!LO:TX:b:t=Cut sie ſtał Kniasiunia czestuie tabaką	!LO:TX:b:i:t=Dona Nobis ut Kyrie allo.	!LO:TX:b:i:t=Dona Nobis . ut Kyrie	!	!LO:TX:b:i:t=Dona Nobis ut Kyrie allo .	!	!LO:TX:b:i:t=Dona Nobis. ut Kyrie Allo=	!
4r	4r	4r	.	4r	.	4r	.
==	==	==	==	==	==	==	==
*-	*-	*-	*-	*-	*-	*-	*-
!!!system-decoration: [(s1,s2)][(s3,s4)]s5
!!!ENC: Andrzej Borzym
!!!END: 2021-02-02
!!!ENC: Jan Barakat
!!!END: 2022-03-22
!!!YEC: Copyright 2022 Narodowy Instytut Fryderyka Chopina (https://polishscores.org)
!!!YEM: License CC-BY-4.0 (https://creativecommons.org/licenses/by/4.0)
